svgs/sharp-regular/hand-fist.svg

<svg xmlns="http://www.w3.org/2000/svg" viewBox="0 0 448 512"><!--! Font Awesome Pro 6.6.0 by @fontawesome - https://fontawesome.com License - https://fontawesome.com/license (Commercial License) Copyright 2024 Fonticons, Inc. --><path d="M128 0l24 0 80 0 24 0 0 24 0 8 56 0 24 0 0 24 0 40 56 0 24 0 0 24 0 112c0 0 0 0 0 .1l0 23.9c0 51.2-25.3 96.4-64 123.9L352 488l0 24-48 0 0-24 0-121.1 0-13.8 12-6.9c26.7-15.5 45.9-42.4 50.8-74.1L312 272l-24 0 0-24 0-8-32 0 0 40 0 24-24 0-80 0-24 0 0-48 24 0 56 0 0-32-56 0-72 0 0 16 0 16.1c0 48.4 33.2 89.1 78 100.6l18 4.6 0 18.6 0 108 0 24-48 0 0-24 0-90.7C74.1 376 35.4 324.7 32.2 264l-.2 0 0-8 0-16 0-8 0-32 0-24 16 0L48 56l0-24 24 0 56 0 0-8 0-24zM368 168l0-24-32 0 0 72 0 8 32 0 0-32 0-24zM128 80L96 80l0 96 32 0 0-96zm80 96l0-120 0-8-32 0 0 8 0 120 32 0zm48 16l32 0 0-72 0-24 0-16-32 0 0 112z"/></svg>

<svg xmlns="http://www.w3.org/2000/svg" viewBox="0 0 448 512"><!--! Font Awesome Pro 6.5.2 by @fontawesome - https://fontawesome.com License - https://fontawesome.com/license (Commercial License) Copyright 2024 Fonticons, Inc. --><path d="M128 0h24 80 24V24v8h56 24V56 96h56 24v24V232c0 0 0 0 0 .1V256c0 51.2-25.3 96.4-64 123.9V488v24H304V488 366.9 353l12-6.9c26.7-15.5 45.9-42.4 50.8-74.1H312 288V248v-8H256v40 24H232 152 128V256h24 56V224H152 80v16 16.1c0 48.4 33.2 89.1 78 100.6l18 4.6V380 488v24H128V488 397.3C74.1 376 35.4 324.7 32.2 264H32v-8V240v-8V200 176H48V56 32H72h56V24 0zM368 168l0-24H336v72 8h32l0-32V168zM128 80H96v96h32V80zm80 96l0-120 0-8H176v8V176h32zm48 16h32V120 96 80H256l0 112z"/></svg>
